dist/images/nav-notification.svg

<svg width="24" height="24" viewBox="0 0 24 24" fill="none" xmlns="http://www.w3.org/2000/svg">
<path d="M11.5 24C12.9323 24 14.1657 23.131 14.7069 21.8906H8.29316C8.83435 23.131 10.0678 24 11.5 24ZM18.7333 11.6185V10.0781C18.7333 6.80522 16.5675 4.0312 13.6 3.12516V2.10938C13.6 0.946266 12.658 0 11.5 0C10.3421 0 9.40004 0.946266 9.40004 2.10938V3.12516C6.43252 4.0312 4.26673 6.80517 4.26673 10.0781V11.6185C4.26673 14.4935 3.17577 17.2195 1.19482 19.2946C1.09984 19.3941 1.03606 19.5194 1.0114 19.6549C0.986738 19.7905 1.00229 19.9304 1.05613 20.0572C1.10996 20.1839 1.1997 20.292 1.31419 20.368C1.42868 20.4439 1.56287 20.4844 1.70008 20.4844H21.3C21.4372 20.4844 21.5714 20.4439 21.6858 20.3679C21.8003 20.292 21.89 20.1839 21.9439 20.0571C21.9977 19.9304 22.0133 19.7905 21.9886 19.6549C21.964 19.5194 21.9002 19.3941 21.8052 19.2946C19.8243 17.2195 18.7333 14.4934 18.7333 11.6185ZM12.2 2.84663C11.9696 2.82431 11.7362 2.8125 11.5 2.8125C11.2639 2.8125 11.0304 2.82431 10.8 2.84663V2.10938C10.8 1.72167 11.1141 1.40625 11.5 1.40625C11.886 1.40625 12.2 1.72167 12.2 2.10938V2.84663ZM20.6 10.0781C20.6 10.4664 20.9134 10.7812 21.3 10.7812C21.6866 10.7812 22 10.4664 22 10.0781C22 7.26094 20.9078 4.61236 18.9246 2.62031C18.6513 2.34577 18.208 2.34572 17.9347 2.62031C17.6613 2.89491 17.6613 3.34008 17.9347 3.61467C19.6534 5.34113 20.6 7.63655 20.6 10.0781ZM1.70008 10.7812C2.08667 10.7812 2.40008 10.4664 2.40008 10.0781C2.40008 7.63659 3.34666 5.34117 5.06538 3.61472C5.33876 3.34012 5.33876 2.89495 5.06538 2.62036C4.79206 2.34577 4.34882 2.34577 4.07545 2.62036C2.09227 4.61241 1.00008 7.26094 1.00008 10.0781C1.00008 10.4664 1.3135 10.7812 1.70008 10.7812Z" fill="#D5DFF2"/>
</svg>

<svg width="24" height="24" fill="none" xmlns="http://www.w3.org/2000/svg"><path d="M11.5 24a3.504 3.504 0 003.207-2.11H8.293A3.504 3.504 0 0011.5 24zm7.233-12.382v-1.54A7.274 7.274 0 0013.6 3.125V2.11C13.6.946 12.658 0 11.5 0c-1.158 0-2.1.946-2.1 2.11v1.015a7.274 7.274 0 00-5.133 6.953v1.54a11.07 11.07 0 01-3.072 7.677.705.705 0 00.505 1.19h19.6a.697.697 0 00.644-.428.706.706 0 00-.139-.762 11.067 11.067 0 01-3.072-7.677zM12.2 2.847a7.256 7.256 0 00-1.4 0v-.738c0-.387.314-.703.7-.703.386 0 .7.316.7.703v.738zm8.4 7.231c0 .388.313.703.7.703.387 0 .7-.315.7-.703 0-2.817-1.092-5.466-3.075-7.458a.698.698 0 00-.99 0 .705.705 0 000 .995 9.102 9.102 0 012.665 6.463zm-18.9.703c.387 0 .7-.315.7-.703 0-2.441.947-4.737 2.665-6.463a.705.705 0 000-.995.698.698 0 00-.99 0A10.502 10.502 0 001 10.078c0 .388.313.703.7.703z" fill="#D5DFF2"/></svg>
